assets/zoom-icon.svg

<svg width="24" height="24" xmlns="http://www.w3.org/2000/svg" fill-rule="evenodd" clip-rule="evenodd"><path d="M15.853 16.56c-1.683 1.517-3.911 2.44-6.353 2.44-5.243 0-9.5-4.257-9.5-9.5s4.257-9.5 9.5-9.5 9.5 4.257 9.5 9.5c0 2.442-.923 4.67-2.44 6.353l7.44 7.44-.707.707-7.44-7.44zm-6.353-15.56c4.691 0 8.5 3.809 8.5 8.5s-3.809 8.5-8.5 8.5-8.5-3.809-8.5-8.5 3.809-8.5 8.5-8.5zm-4.5 8h4v-4h1v4h4v1h-4v4h-1v-4h-4v-1z"/></svg>

<?xml version="1.0" encoding="utf-8"?>
<!-- Generator: Adobe Illustrator 25.2.1, SVG Export Plug-In . SVG Version: 6.00 Build 0)  -->
<svg version="1.1" id="Layer_1" xmlns="http://www.w3.org/2000/svg" xmlns:xlink="http://www.w3.org/1999/xlink" x="0px" y="0px"
	 viewBox="0 0 24 24" style="enable-background:new 0 0 24 24;" xml:space="preserve">
<style type="text/css">
	.st0{fill-rule:evenodd;clip-rule:evenodd;fill:#1749B3;}
</style>
<path class="st0" d="M15.9,16.6c-1.7,1.5-3.9,2.4-6.4,2.4C4.3,19,0,14.7,0,9.5S4.3,0,9.5,0S19,4.3,19,9.5c0,2.4-0.9,4.7-2.4,6.4
	l7.4,7.4L23.3,24C23.3,24,15.9,16.6,15.9,16.6z M9.5,1C14.2,1,18,4.8,18,9.5S14.2,18,9.5,18S1,14.2,1,9.5S4.8,1,9.5,1z M5,9h4V5h1v4
	h4v1h-4v4H9v-4H5V9z"/>
</svg>
